X: 21382
T: HART'S TENTH SET OF QUADRILLES Part 2
R: reel
B: K\"ohler's Violin Repository, v.2, 1885 p.138 #2
F: http://www.archive.org/details/klersviolinrepos02rugg
Z: 2012 John Chambers <jc:trillian.mit.edu>
M: 2/4
L: 1/16
K: D
[|\
va4(^gaba) | d'4 (c'd'e'd') | f'4 (e'd'c'b) | b2a2 z4 |\
ve2f2g2^g2 | a2d'2 c'bag | f2a2 agfe | d6 ||
uA2 |\
d2e2f2g2 | ^g2a2 z2ua2 | gfed cbag | fgef d2A2 |\
d2e2f2g2 | ^g2a2 z2ua2 | ^g2d'2b2g2 | a6 ||
a2 |\
gfed cbag | fgef d2a2 | gfed cbag | fgef d2(de) |\
=f2f2f2f2 | _b2b2b2 (bc') | d'2d'2 ^g2g2 | a6 (fg) "_D.C."|]

%%sep 2 1 500

